src/duckstation-qt/resources/icons/black/svg/checkbox-multiple-blank-line.svg

<svg height="24" viewBox="0 0 24 24" width="24" xmlns="http://www.w3.org/2000/svg"><path d="m0 0h24v24h-24z" fill="none"/><path d="m7 7v-4a1 1 0 0 1 1-1h13a1 1 0 0 1 1 1v13a1 1 0 0 1 -1 1h-4v3.993c0 .556-.449 1.007-1.007 1.007h-12.986a1.006 1.006 0 0 1 -1.007-1.007l.003-12.986c0-.556.449-1.007 1.007-1.007zm2 0h6.993c.556 0 1.007.449 1.007 1.007v6.993h3v-11h-11zm-4.997 2-.003 11h11v-11z"/></svg>

<svg xmlns="http://www.w3.org/2000/svg" viewBox="0 0 24 24" width="24" height="24"><path fill="none" d="M0 0h24v24H0z"/><path d="M7 7V3a1 1 0 0 1 1-1h13a1 1 0 0 1 1 1v13a1 1 0 0 1-1 1h-4v3.993c0 .556-.449 1.007-1.007 1.007H3.007A1.006 1.006 0 0 1 2 20.993l.003-12.986C2.003 7.451 2.452 7 3.01 7H7zm2 0h6.993C16.549 7 17 7.449 17 8.007V15h3V4H9v3zM4.003 9L4 20h11V9H4.003z" fill="#000000"/></svg>
